X:1
T:James Gibb editions
T:I praise the tender flower - Stanford
T:#
%%score 1 { ( 2 5 ) | ( 3 4 ) }
L:1/8
Q:1/4=60
M:3/4
K:F
V:1 treble nm="Voice"
V:2 treble nm="Piano"
V:5 treble 
V:3 bass 
V:4 bass 
V:1
"^Robert Bridges\n(1844-1930)""^C. V. Stanford\n(1852-1924)""^I praise the tender flower, op.43 no.2""^larghetto" z6 | %1
w: |
 z6 | z!mp! A A>A!<(! Ad!<)! |!>(! (d/G/)!>)! z/ G/ G>G!<(! Gc | (c B)!<)! f3 d/B/ | AG (dc) z A | %6
w: |I praise the ten- der|flower, * That on a mourn- ful|day * Bloomed in my|gar- den bower, * And|
 FA (dc/d/ B)g | c6 | z2 z2!mp! A2 | f2- f>d =Be | dc z d B!<(!F |!>(! A2!<)! ^G!>)! z z2 | z6 | %13
w: made the win\- * * * ter|gay.|Its|love\- * li- ness con-|tent- ed my heart tor-|ment- ed.||
 z6 | z!p! A3/2A3/2!<(! A/A/d!<)! |!>(! (d/G/) z/!>)! G/ G>G Gc |!<(! c>F!<)! f>d BF | %17
w: |I praise the gen- tle|maid, * whose hap- py voice and|smile To con- fi- dence be-|
!>(! (AG)!>)! z2 z!p! A | FA (fe/f/ d>)^G | A6 | z2 z2 c2 | _e>c (AB) cd | cB z!mf!!<(! G B>d!<)! | %23
w: trayed * My|dole- ful heart * * * a-|while:|And|gave my spi\- * rit de-|plor- ing Fresh wings for|
!f! g4- c2 | z6 | z!p! G G>G Gc | (c^F) z F _e>d |"^rall."[Q:1/4=58] c[Q:1/4=55]B[Q:1/4=54] d4 | %28
w: soar- ing.||The maid for ve- ry|fear * of love I|durst not tell;|
[Q:1/4=60] z!pp! B"^a tempo" B>B B_e | (_eA) z A g>f | _ed f4- |!<(! f6!<)! | z!f! F B3 c | %33
w: The rose could ne- ver|hear, * though I be-|spake her well:||So in my|
 (BAcB d)c | _e4 d2 | z"^poco rall."[Q:1/4=59] d[Q:1/4=56] f3[Q:1/4=54] c | %36
w: song * * * * I|bind them|For all to|
"^a tempo"[Q:1/4=60] c2 F2 z2 | z6 | z6 | !fermata!z6 |] %40
w: find them.||||
V:2
!p! (.[FA].[FA].[FA].[FA].[FA].[FAd]) | (.[FAd].[FA].[FA].[FA])(.[CFA].[B,CG]) | %2
 [A,CA][FA][FA][FA][FA][FA] | [EG][EG][_EG][EG][EG].[EG] |!<(! [_EA][DB]!<)!!>(! [B,FB]4 | %5
 z!>)!!p! .[EG]([E^G][FA]) z2 | z2 ([Fd]2 [B,E]) z | z!p! (A/G/) (G/A/F) (E/G/c/g/ | %8
 c)(B/A/) (G/A/F) ([FA][EG]/[DF]/) | A2- ^G4 | [DF^G]-[CFA] =GF z2 | %11
 z [=B,D]2!<(! [B,D][B,D]!<)![B,D] | ([=B,DA]!<(![B,DG]) [B,D]!<)![B,D]!>(! ([_B,CA][B,C=G])!>)! | %13
 [B,C][A,F] (.[FA].[FA].[FA].[FA]) | [FA][FA][FA][FA][FA][FA] | [EG][EG] [_EG][EG][EG][EG] | %16
 ([_EF]D)!>(! [B,FB]4!>)! | z (G[^Gd][A^c]) z E | F2 ([DFA]2 [=B,D^G]) z | %19
 z!p! (c/=B/) (B/c/A) (^G/B/d/f/ | e)(c/=B/) (B/c/A) cA/G/ | G2 ^F4 | %22
 [_E^F][DG][B,D][G,B,] D/=ED/ | (DE/D/) (D/E/C/G,/) (G,/C/E/G/) | G4 (G,/C/E/G/) | %25
!p! G4 (G,/C/_E/G/) | (A_E/D/) (cE/^F/ A/c/B/A/) | ([_E^F][DG]) z (G/A/ B/d/g/b/) | %28
 B[AB][GB][FGB][_EGB][DGB] | [CGA]2 ([CA] [GA_e]2 [FAd]) | ([_EAc][DB]) (DF/d/ c/B/F/D/) | %31
 (DF/E/ D/F/A/!<(!c/ =B/A/F/D/)!<)! | z/!mf! (A,/F/C/ BGEA) | (D/E/F/C/) (E/F/G/C/) (F/G/A/C/) | %34
 z2 _E/G/B/_e/ (d/B/F/D/ | F) z z2 [B,G]2 | (GA/G/ F/A/D) (E/G/c/g/) | (cB/A/ G/A/F) (E/G/d/g/) | %38
 z [CAc][CAc][CAc][A,FA][A,FA] |!p! [A,FA]2 [A,FA]2 !fermata![A,FA]2 |] %40
V:3
 z2 z!p! (=B,!<(! C2) | z!<)! (=B,, C,2 D,E, | F, z) (EDC[G,=B,]) | z DCB,A,G, | (^F,G,) G,,4 | %5
 z .B,(B,A,) z2 | z2 [B,,G,]2- .[C,G,] z | z (C/B,/) (B,/C/A,) [C,B,]2 | [G,A,]D/C/ B,/C/A, =B,,2 | %9
 E,,6 | A,,2 B,,2 z2 | z2 z (E, F,2) | z (E,, F,,2) (3(E,,D,,E,,) | (F,, C,2 F,) z2 | %14
 z2 (EDC[G,=B,]) | z2 (DCB,[F,A,]) |!<(! B,2 G,,4!<)! | z [B,E][B,E]-[A,E] z ^C | D2 (=B,,2 E,) z | %19
 z (E/D/) (D/E/C) [E,D]2 | C(E/D/) (D/E/C) C,2 | D,6 | A,B,"^cresc."G,D, G,,2 | %23
!f! (C,,/G,,/E,) (E,,/G,,/E,) z2 | (C,,/G,,/E,) (E,,/G,,/E,) z2 | (C,,/G,,/_E,) (_E,,/G,,/E,) z2 | %26
 (^F,,/_E,/A,) (A,,/^F,/C) F,-[F,A,] | G,2"^rall." z (B,/D/ G) z |"^a tempo" z4 z2 | z2 F,4 | B,6 | %31
 G,,/(F,/=B,) (D,/B,/F) z G,, | C,,2- [C,,C,]4 | z (C,B,,C,A,,C,) | G,,_E,/B,/ z2 B,,2- | %35
"^colla parte" B,, z z2 C,2 | F,,2 (A,/C/B,) [C,B,]2 | ([G,B,]D/C/ B,/C/A,) [C,B,]2 | %38
 z"^dim." (=B,, C,3) (E,, | F,,2) [F,,C,]2 !fermata![F,,C,]2 |] %40
V:4
 x6 | x6 | x6 | x6 | x6 | x6 | x4 x2 | x4 x2 | F,4 x2 | x6 | x6 | x6 | x6 | x6 | x6 | x6 | x6 | %17
 x6 | x6 | x4 x2 | A,4 x2 | x4 x2 | x6 | x6 | x6 | x6 | x6 | x6 | x6 | x6 | x6 | x6 | x6 | x6 | %34
 x6 | x6 | x4 x2 | F,4 x2 | x4 x2 | x4 x2 |] %40
V:5
 x6 | x6 | x6 | x6 | x6 | x6 | x6 | x6 | x6 | [=B,D]6 | x2 D2 z2 | x4 x2 | x4 x2 | x6 | x6 | x6 | %16
 x6 | x6 | x6 | x4 x2 | x4 _E2 | C6 | x4 [F,=B,]2 | G,2 x2 x2 | (DE/D/) (D/E/C/G,/) x2 | %25
 (D-_E/D/) (D/E/C/G,/) x2 | x4 x2 | x4 x2 | x x4 x | x2 x2 x2 | x4 x2 | x4 x2 | %32
 z/ x x/ B/D/G/B,/ E/G,/A/C/ | x4 x2 | x4 x2 | x z z2 FE | [B,E]2 x2 x2 | x4 x2 | x4 x2 | x4 x2 |] %40

